X:21194 
T:TOMGRANEY CASTLE (hornpipe)
T:Tuamgraney Castle 
B:DMI.0949
Z:Nordberg/Black
R:hornpipe
%Q:1/4=150
M:C|
L:1/8
K:Am
cB|A2AB AGEG|AGAB cBcd|e^fga gedc|B2G2 G2cB|
A2AB AGEG|AGAB cBcd|egfa gede|c2A2A2:|
eg|a2ab ageg|agab a2ge|dega gedc|B2G2 G2cB|
A2AB AGEG|AGAB cBcd|egfa gede|c2A2A2:|

%%%

